!!!SOCIAL_FUNCTION:	songs connected with expeditions to obtain salt
!!!PDT:	1929
!!!OTL: No_121_Song_Before_an_Expedition_to_Obtain_Salt.krn
!!!REG: Southwest
!!!LANG: Non-Tone
!!!LING_GROUP: Uto-Aztecan
**kern
*staff1
*clefF4
*k[b-e-a-d-g-c-]
*M3/4
4B-\
=1
2c-\
8B-\L
8F\J
=2||
*M2/4
4.G-\
8F\
=3
4E-\
8G-\L
8F\J
=4||
*M3/4
2G-\
8.F\L
16E-\Jk
=5||
*M2/4
4.E-\
16F\LL
16F\JJ
=6
8E-\L
[8E-\J
8E-/L]
16C-/L
16BB-/JJ
=7||
*M3/4
2BB-/
8G-\L
8F\J
=8||
*M5/8
8G-\L
[8G-\
16G-\L]
16F\J
8E-\
16F\L
16E-\JJ
=9||
*M3/4
16F\LK
8.F\J
4E-\
16C-/LL
16BB-/JJ
8r
=10||
*M2/4
8E-\L
16E-\L
16E-\JJ
8E-/L
16C-/L
16BB-/JJ
=11
8E-\L
16E-\L
16E-\JJ
4E-\
=12
2BB-/
==
*-
